src/pos-icons/alpha-v-circle.svg

<svg height="24" viewBox="0 0 24 24" width="24" xmlns="http://www.w3.org/2000/svg"><path d="m9 7 2 10h2l2-10h-2l-1 5-1-5zm3-5a10 10 0 0 1 10 10 10 10 0 0 1 -10 10 10 10 0 0 1 -10-10 10 10 0 0 1 10-10z"/></svg>

<?xml version="1.0" encoding="UTF-8"?><!DOCTYPE svg PUBLIC "-//W3C//DTD SVG 1.1//EN" "http://www.w3.org/Graphics/SVG/1.1/DTD/svg11.dtd"><svg xmlns="http://www.w3.org/2000/svg" xmlns:xlink="http://www.w3.org/1999/xlink" version="1.1" id="mdi-alpha-v-circle" width="24" height="24" viewBox="0 0 24 24"><path d="M9,7L11,17H13L15,7H13L12,12L11,7H9M12,2A10,10 0 0,1 22,12A10,10 0 0,1 12,22A10,10 0 0,1 2,12A10,10 0 0,1 12,2Z" /></svg>
